assets/02_eyes/Eye 16.svg

<svg width="400" height="180" viewBox="0 0 400 180" fill="none" xmlns="http://www.w3.org/2000/svg">
<path d="M200.566 17.2607C183.568 63.9625 207.655 115.617 254.357 132.615C301.059 149.613 352.713 125.526 369.711 78.8244L200.566 17.2607Z" fill="white"/>
<path d="M254.357 132.615C231.003 124.115 218.961 98.2918 227.462 74.9378C235.962 51.5838 261.785 39.5424 285.139 48.0425C308.493 56.5427 320.534 82.3656 312.034 105.72C303.534 129.074 277.711 141.115 254.357 132.615Z" fill="#010101"/>
<path d="M200.145 17C217.143 63.7017 193.056 115.356 146.354 132.354C99.6524 149.352 47.998 125.265 31 78.5636L200.145 17Z" fill="white"/>
<path d="M146.354 132.354C169.708 123.854 181.75 98.0311 173.249 74.6771C164.749 51.3231 138.926 39.2816 115.572 47.7818C92.2183 56.282 80.1769 82.1049 88.677 105.459C97.1772 128.813 123 140.854 146.354 132.354Z" fill="#010101"/>
<path d="M109.878 92.7868L108.076 90.8072L108.554 90.6334L108.536 90.7076C108.453 91.346 108.261 91.9337 107.961 92.4709C107.661 93.0081 107.233 93.5019 106.696 93.9451C106.159 94.3883 105.499 94.7412 104.743 95.0162C103.53 95.4578 102.445 95.4473 101.441 94.9792C100.457 94.5039 99.6647 93.4408 99.0638 91.79L94.9953 80.6118C94.3944 78.9609 94.3379 77.63 94.8259 76.6189C95.3139 75.6079 96.1781 74.8879 97.4112 74.4391C98.4057 74.0771 99.3804 73.9701 100.308 74.1055C101.236 74.2408 101.932 74.483 102.363 74.7993L102.459 74.877L101.981 75.0508L99.3388 67.7909L104.112 66.0535L113.379 91.5127L109.878 92.7868ZM100.595 77.4925C99.8192 77.7748 99.6168 78.4566 100.015 79.5506L103.533 89.2171C103.765 89.8536 104.071 90.2604 104.451 90.4375C104.83 90.6146 105.299 90.6018 105.836 90.4064C106.353 90.2182 106.673 89.9215 106.816 89.5091C106.958 89.0968 106.933 88.6555 106.752 88.1583L102.973 77.7757C102.19 77.2949 101.41 77.1957 100.595 77.4925ZM105.965 67.1814L106.775 69.409L98.4016 72.4568L97.5908 70.2291L105.965 67.1814Z" fill="white"/>
<path d="M128.654 85.9529L123.881 87.6903L123.092 85.5223L123.569 85.3485C123.49 85.873 123.323 86.4065 123.023 86.9437C122.743 87.4736 122.315 87.9674 121.785 88.4305C121.255 88.8936 120.603 89.2664 119.827 89.5487C118.634 89.9831 117.588 89.9581 116.651 89.4882C115.715 89.0183 114.955 87.9208 114.347 86.25L108.693 70.7159L113.466 68.9785L118.874 83.8363C119.265 84.9104 119.905 85.308 120.78 84.9895C121.059 84.8882 121.314 84.6602 121.558 84.2786C121.802 83.8969 122.004 83.4629 122.165 82.9764L116.649 67.8202L121.422 66.0827L128.662 85.9727L128.654 85.9529ZM118.113 61.1378L118.924 63.3655L109.651 69.2635L108.84 67.0358L118.113 61.1378Z" fill="white"/>
<path d="M123.324 65.3679L128.098 63.6304L128.945 65.9575L128.468 66.1313L128.585 65.7732C128.865 64.9955 129.326 64.2196 130 63.411C130.675 62.6025 131.503 62.0308 132.477 61.6761C133.651 61.249 134.636 61.2957 135.474 61.8018C136.311 62.3079 137.024 63.3999 137.647 65.1105L143.301 80.6446L138.527 82.382L133.119 67.5242C132.728 66.4501 132.128 66.038 131.352 66.3203C130.576 66.6027 130.003 67.1942 129.712 68.0659L135.345 83.5403L130.571 85.2778L123.332 65.3878L123.324 65.3679Z" fill="white"/>
<path d="M139.942 60.8963C140.517 59.3807 141.925 58.2374 144.212 57.4048L151.154 54.8783L152.312 58.0607L147.917 59.6606L147.743 59.1832C148.811 59.0871 149.821 59.2604 150.743 59.6905C151.673 60.1405 152.431 61.1711 153.017 62.7822L153.169 63.1999C153.618 64.433 153.81 65.5795 153.752 66.6591C153.695 67.7387 153.326 68.7063 152.614 69.5963C151.922 70.4789 150.849 71.1845 149.398 71.713L148.224 72.1401C147.727 72.3211 147.398 72.531 147.237 72.7697C147.076 73.0085 147.031 73.3177 147.161 73.6757C147.422 74.3918 148.029 74.5761 148.984 74.2286L151.013 73.4902C153.201 72.6938 154.93 72.4926 156.219 72.8792C157.509 73.2658 158.469 74.3578 159.113 76.128C159.845 78.1369 159.849 79.7572 159.106 80.9962C158.363 82.2351 157.043 83.1885 155.154 83.8763L152.826 84.7233C151.016 85.382 149.461 85.5652 148.128 85.3069C146.796 85.0487 145.897 84.2497 145.412 82.9171C145.129 82.1414 145.022 81.4144 145.078 80.7634C145.134 80.1124 145.373 79.53 145.794 79.0163C146.208 78.4827 146.792 78.0449 147.524 77.6432L147.698 78.1206C146.593 78.365 145.68 78.2695 145.005 77.8393C144.31 77.4163 143.817 76.7401 143.476 75.8053C143.165 74.95 143.116 74.1345 143.342 73.3315C143.568 72.5285 144.198 71.8484 145.222 71.3182L145.396 71.7956C144.291 72.04 143.338 71.7112 142.578 70.8615C141.811 69.9919 141.207 68.9504 140.758 67.7172L140.142 66.0266C139.447 64.1171 139.387 62.4046 139.949 60.9162L139.942 60.8963ZM149.597 80.9881C149.923 81.1399 150.324 81.1289 150.802 80.9552L154.621 79.5652C155.078 79.3987 155.393 79.1491 155.564 78.8163C155.716 78.4907 155.72 78.1291 155.575 77.7313C155.423 77.3136 155.188 77.0388 154.877 76.9267C154.566 76.8147 154.171 76.8456 153.694 77.0193L149.875 78.4093C149.378 78.5903 149.056 78.82 148.91 79.0986C148.743 79.3843 148.74 79.746 148.892 80.1637C149.044 80.5814 149.272 80.8363 149.597 80.9881ZM146.646 67.8041C146.991 67.9487 147.373 67.9449 147.771 67.8002C148.168 67.6554 148.503 67.3985 148.694 67.0584C148.886 66.7184 148.895 66.3097 148.721 65.8324L147.447 62.3317C147.281 61.8742 147.011 61.5669 146.639 61.4097C146.273 61.2724 145.872 61.2833 145.454 61.4353C145.036 61.5874 144.762 61.8225 144.59 62.1553C144.418 62.4881 144.409 62.8968 144.583 63.3742L145.857 66.8748C146.024 67.3323 146.293 67.6396 146.646 67.8041Z" fill="white"/>
<path d="M117.436 126.053C117.436 126.053 117.429 126.033 117.422 126.014L108.177 100.614L112.951 98.8765L122.217 124.336L117.503 126.051L117.464 126.066L117.436 126.053ZM120.777 120.378L122.21 124.316L121.574 124.548L120.14 120.609L120.777 120.378Z" fill="white"/>
<path d="M118.707 104.665C119.281 103.15 120.71 101.999 122.977 101.174C125.245 100.349 127.085 100.332 128.493 101.103C129.907 101.895 130.935 103.233 131.63 105.142L134.511 113.059C135.206 114.968 135.266 116.681 134.704 118.169C134.129 119.685 132.721 120.828 130.434 121.661C128.146 122.493 126.325 122.503 124.918 121.731C123.504 120.939 122.476 119.601 121.781 117.692L118.9 109.776C118.205 107.866 118.145 106.154 118.707 104.665ZM127.684 117.819C128.049 117.956 128.47 117.938 128.968 117.757C129.465 117.576 129.799 117.319 130.011 116.972C130.222 116.624 130.231 116.216 130.058 115.738L126.51 105.992C126.344 105.535 126.054 105.235 125.682 105.077C125.297 104.947 124.855 104.973 124.378 105.146C123.901 105.32 123.546 105.584 123.355 105.924C123.163 106.264 123.154 106.673 123.328 107.15L126.875 116.897C127.042 117.354 127.311 117.661 127.684 117.819Z" fill="white"/>
<path d="M133.028 99.4529C133.602 97.9373 135.03 96.7868 137.298 95.9615C139.565 95.1362 141.406 95.1194 142.813 95.8911C144.228 96.6828 145.255 98.0207 145.95 99.9301L148.832 107.846C149.527 109.756 149.587 111.468 149.025 112.957C148.45 114.472 147.042 115.616 144.754 116.448C142.467 117.281 140.646 117.29 139.239 116.519C137.825 115.727 136.797 114.389 136.102 112.48L133.221 104.563C132.526 102.654 132.466 100.941 133.028 99.4529ZM142.005 112.606C142.37 112.744 142.791 112.725 143.289 112.544C143.786 112.363 144.12 112.106 144.332 111.759C144.543 111.412 144.552 111.003 144.378 110.526L140.831 100.78C140.665 100.322 140.375 100.022 140.003 99.865C139.617 99.7349 139.176 99.7603 138.699 99.9341C138.221 100.108 137.867 100.372 137.675 100.712C137.484 101.052 137.475 101.461 137.649 101.938L141.196 111.684C141.362 112.142 141.632 112.449 142.005 112.606Z" fill="white"/>
<path d="M143.501 87.7569L148.275 86.0194L152.923 98.7888L152.445 98.9625L153.843 90.3L158.298 88.6784L157.848 95.9825C157.783 96.7945 157.68 97.4401 157.505 97.8869C157.337 98.3535 157.006 98.7442 156.507 99.106C156.008 99.4678 155.241 99.837 154.207 100.213L154.033 99.7361C155.068 99.3596 155.892 99.1496 156.487 99.1132C157.082 99.0769 157.594 99.1834 157.995 99.4202C158.397 99.657 158.871 100.093 159.424 100.747L166.094 108.366L161.002 110.219L153.631 102.158L154.108 101.984L157.561 111.471L152.788 113.209L143.521 87.7496L143.501 87.7569Z" fill="white"/>
</svg>

<svg xmlns="http://www.w3.org/2000/svg" width="400" height="180" fill="none" viewBox="0 0 400 180"><path fill="#fff" d="M200.566 17.26c-16.998 46.703 7.089 98.357 53.791 115.355s98.356-7.089 115.354-53.79z"/><path fill="#010101" d="M254.357 132.615c-23.354-8.5-35.396-34.323-26.895-57.677 8.5-23.354 34.323-35.396 57.677-26.896s35.395 34.324 26.895 57.678-34.323 35.395-57.677 26.895"/><path fill="#fff" d="M200.145 17c16.998 46.702-7.089 98.356-53.791 115.354S47.998 125.265 31 78.564z"/><path fill="#010101" d="M146.354 132.354c23.354-8.5 35.396-34.323 26.895-57.677-8.5-23.354-34.323-35.395-57.677-26.895s-35.395 34.323-26.895 57.677 34.323 35.395 57.677 26.895"/><path fill="#fff" d="m109.878 92.787-1.802-1.98.478-.174-.018.075a4.9 4.9 0 0 1-.575 1.763c-.3.537-.728 1.03-1.265 1.474s-1.197.796-1.953 1.071c-1.213.442-2.298.431-3.302-.037q-1.476-.712-2.377-3.189l-4.069-11.178q-.9-2.477-.17-3.993c.489-1.011 1.353-1.731 2.586-2.18.995-.362 1.97-.469 2.897-.333.928.135 1.624.377 2.055.693l.096.078-.478.174-2.642-7.26 4.773-1.737 9.267 25.459zm-9.283-15.294c-.776.282-.978.964-.58 2.058l3.518 9.666q.348.955.918 1.22c.379.178.848.165 1.385-.03.517-.189.837-.486.98-.898.142-.412.117-.853-.064-1.35l-3.779-10.383c-.783-.481-1.563-.58-2.378-.283m5.37-10.312.81 2.228-8.373 3.048-.811-2.228z"/><path fill="#fff" d="m128.654 85.953-4.773 1.737-.789-2.168.477-.174a4.7 4.7 0 0 1-.546 1.596c-.28.53-.708 1.023-1.238 1.486q-.794.695-1.958 1.119c-1.193.434-2.239.41-3.176-.06-.936-.47-1.696-1.568-2.304-3.239l-5.654-15.534 4.773-1.737 5.408 14.857c.391 1.074 1.031 1.472 1.906 1.154.279-.102.534-.33.778-.711q.366-.573.607-1.303l-5.516-15.156 4.773-1.737 7.24 19.89zm-10.541-24.815.811 2.227-9.273 5.898-.811-2.227z"/><path fill="#fff" d="m123.324 65.368 4.774-1.738.847 2.327-.477.174.117-.358c.28-.777.741-1.553 1.415-2.362a5.7 5.7 0 0 1 2.477-1.735c1.174-.427 2.159-.38 2.997.126.837.506 1.55 1.598 2.173 3.309l5.654 15.534-4.774 1.737-5.408-14.858c-.391-1.074-.991-1.486-1.767-1.204s-1.349.874-1.64 1.746l5.633 15.474-4.774 1.738-7.239-19.89z"/><path fill="#fff" d="M139.942 60.896c.575-1.515 1.983-2.659 4.27-3.491l6.942-2.527 1.158 3.183-4.395 1.6-.174-.478a5.8 5.8 0 0 1 3 .508q1.395.675 2.274 3.091l.152.418c.449 1.233.641 2.38.583 3.46-.057 1.079-.426 2.046-1.138 2.936q-1.039 1.324-3.216 2.117l-1.174.427q-.745.272-.987.63c-.161.239-.206.548-.076.906q.391 1.074 1.823.553l2.029-.739c2.188-.796 3.917-.997 5.206-.61 1.29.386 2.25 1.478 2.894 3.248.732 2.009.736 3.63-.007 4.868-.743 1.24-2.063 2.193-3.952 2.88l-2.328.847c-1.81.659-3.365.842-4.698.584-1.332-.258-2.231-1.057-2.716-2.39-.283-.776-.39-1.503-.334-2.154a3.12 3.12 0 0 1 .716-1.747c.414-.533.998-.971 1.73-1.373l.174.478c-1.105.244-2.018.148-2.693-.282-.695-.423-1.188-1.099-1.529-2.034-.311-.855-.36-1.67-.134-2.474.226-.803.856-1.483 1.88-2.013l.174.478c-1.105.244-2.058-.085-2.818-.934-.767-.87-1.371-1.912-1.82-3.145l-.616-1.69c-.695-1.91-.755-3.622-.193-5.11zm9.655 20.092q.489.227 1.205-.033l3.819-1.39q.686-.25.943-.749.228-.488.011-1.085c-.152-.417-.387-.692-.698-.804q-.467-.168-1.183.092l-3.819 1.39q-.746.272-.965.69c-.167.285-.17.647-.018 1.065s.38.672.705.824m-2.951-13.184c.345.145.727.14 1.125-.004.397-.145.732-.401.923-.742q.288-.51.027-1.226l-1.274-3.5q-.25-.687-.808-.922c-.366-.138-.767-.127-1.185.025s-.692.387-.864.72-.181.742-.007 1.22l1.274 3.5c.167.457.436.765.789.93"/><path fill="#fff" d="m117.436 126.053-.014-.039-9.245-25.4 4.774-1.738 9.266 25.46-4.714 1.715-.039.015zm3.341-5.675 1.433 3.938-.636.232-1.434-3.939z"/><path fill="#fff" d="M118.707 104.665c.574-1.515 2.003-2.666 4.27-3.491 2.268-.825 4.108-.842 5.516-.071 1.414.792 2.442 2.13 3.137 4.039l2.881 7.917c.695 1.909.755 3.622.193 5.11-.575 1.516-1.983 2.659-4.27 3.492-2.288.832-4.109.842-5.516.07-1.414-.792-2.442-2.13-3.137-4.039l-2.881-7.916c-.695-1.91-.755-3.622-.193-5.111m8.977 13.154c.365.137.786.119 1.284-.062.497-.181.831-.438 1.043-.785s.22-.756.047-1.234l-3.548-9.746c-.166-.457-.456-.757-.828-.915-.385-.13-.827-.104-1.304.069-.477.174-.832.438-1.023.778q-.288.51-.027 1.226l3.547 9.747q.25.685.809.922"/><path fill="#fff" d="M133.028 99.453c.574-1.516 2.002-2.666 4.27-3.492 2.267-.825 4.108-.842 5.515-.07 1.415.792 2.442 2.13 3.137 4.04l2.882 7.915c.695 1.91.755 3.622.193 5.111-.575 1.515-1.983 2.659-4.271 3.491s-4.108.842-5.515.071c-1.414-.792-2.442-2.13-3.137-4.039l-2.881-7.917c-.695-1.909-.755-3.622-.193-5.11m8.977 13.153c.365.138.786.119 1.284-.062.497-.181.831-.438 1.043-.785s.22-.756.046-1.233l-3.547-9.746c-.166-.458-.456-.758-.828-.915-.386-.13-.827-.105-1.304.07-.478.173-.832.437-1.024.777q-.287.51-.026 1.226l3.547 9.746q.25.687.809.922"/><path fill="#fff" d="m143.501 87.757 4.774-1.738 4.648 12.77-.478.174 1.398-8.663 4.455-1.622-.45 7.305c-.065.811-.168 1.457-.343 1.904-.168.466-.499.857-.998 1.219q-.749.543-2.3 1.107l-.174-.477c1.035-.376 1.859-.586 2.454-.623.595-.036 1.107.07 1.508.307.402.237.876.673 1.429 1.327l6.67 7.619-5.092 1.853-7.371-8.061.477-.174 3.453 9.487-4.773 1.738-9.267-25.46z"/></svg>
